icons/svg/icons8/tram.svg

<svg width="26" height="26" viewBox="0 0 26 26" fill="none" xmlns="http://www.w3.org/2000/svg">
<g clip-path="url(#clip0)">
<path d="M4.00001 25.813C5.0013 25.813 5.81301 25.0013 5.81301 24C5.81301 22.9987 5.0013 22.187 4.00001 22.187C2.99872 22.187 2.18701 22.9987 2.18701 24C2.18701 25.0013 2.99872 25.813 4.00001 25.813Z" fill="#333333"/>
<path d="M8.00001 25.813C9.0013 25.813 9.81301 25.0013 9.81301 24C9.81301 22.9987 9.0013 22.187 8.00001 22.187C6.99872 22.187 6.18701 22.9987 6.18701 24C6.18701 25.0013 6.99872 25.813 8.00001 25.813Z" fill="#333333"/>
<path d="M18 25.813C19.0013 25.813 19.813 25.0013 19.813 24C19.813 22.9987 19.0013 22.187 18 22.187C16.9987 22.187 16.187 22.9987 16.187 24C16.187 25.0013 16.9987 25.813 18 25.813Z" fill="#333333"/>
<path d="M22 25.813C23.0013 25.813 23.813 25.0013 23.813 24C23.813 22.9987 23.0013 22.187 22 22.187C20.9987 22.187 20.187 22.9987 20.187 24C20.187 25.0013 20.9987 25.813 22 25.813Z" fill="#333333"/>
<path d="M11.5 6.5L14.5 9.5L11.5 12.5" stroke="#333333" stroke-miterlimit="10" stroke-linecap="round" stroke-linejoin="round"/>
<path d="M25.5802 19.766L22.6842 14.051C22.2442 12.876 20.9942 12 19.8582 12H16.0002C16.0002 11.449 15.5512 11 15.0002 11H11.0002C10.4492 11 10.0002 11.449 10.0002 12H6.14223C5.00523 12 3.75523 12.876 3.31523 14.051L0.419226 19.766C-0.410774 21.979 0.266226 24 3.10023 24H22.9002C25.7342 24 26.4122 21.979 25.5802 19.766ZM8.00023 18H3.55623L5.09923 14.955L5.14923 14.856L5.18823 14.752C5.34923 14.323 5.87723 14 6.14223 14H8.00023V18ZM16.0002 18H10.0002V14H16.0002V18ZM18.0002 18V14H19.8582C20.1222 14 20.6502 14.323 20.8112 14.753L20.8502 14.857L20.9002 14.956L22.4432 18H18.0002Z" fill="#333333"/>
</g>
<defs>
<clipPath id="clip0">
<rect width="26" height="26" fill="white"/>
</clipPath>
</defs>
</svg>

<?xml version="1.0" encoding="utf-8"?>
<!-- Generator: Adobe Illustrator 15.0.0, SVG Export Plug-In . SVG Version: 6.00 Build 0)  -->
<!DOCTYPE svg PUBLIC "-//W3C//DTD SVG 1.1//EN" "http://www.w3.org/Graphics/SVG/1.1/DTD/svg11.dtd">
<svg version="1.1" id="Layer_1" xmlns="http://www.w3.org/2000/svg" xmlns:xlink="http://www.w3.org/1999/xlink" x="0px" y="0px"
	 width="26px" height="26px" viewBox="0 0 26 26" enable-background="new 0 0 26 26" xml:space="preserve">
<rect x="902" y="1469" fill="#333333" width="26" height="2"/>
<rect x="902" y="1489" fill="#333333" width="26" height="2"/>
<rect x="906" y="1474" fill="#333333" width="18" height="2"/>
<rect x="902" y="1479" fill="#333333" width="26" height="2"/>
<rect x="906" y="1484" fill="#333333" width="18" height="2"/>
<rect x="902" y="1467" fill="none" width="26" height="26"/>
<circle fill="#333333" cx="4" cy="24" r="1.813"/>
<circle fill="#333333" cx="8" cy="24" r="1.813"/>
<circle fill="#333333" cx="18" cy="24" r="1.813"/>
<circle fill="#333333" cx="22" cy="24" r="1.813"/>
<rect fill="none" width="26" height="26"/>
<polyline fill="none" stroke="#333333" stroke-linecap="round" stroke-linejoin="round" stroke-miterlimit="10" points="11.5,6.5 
	14.5,9.5 11.5,12.5 "/>
<path fill="#333333" d="M25.58,19.766l-2.896-5.715C22.244,12.876,20.994,12,19.858,12H16c0-0.551-0.449-1-1-1h-4
	c-0.551,0-1,0.449-1,1H6.142c-1.137,0-2.387,0.876-2.827,2.051l-2.896,5.715C-0.411,21.979,0.266,24,3.1,24h19.8
	C25.734,24,26.412,21.979,25.58,19.766z M8,18H3.556l1.543-3.045l0.05-0.099l0.039-0.104C5.349,14.323,5.877,14,6.142,14H8V18z
	 M16,18h-6v-4h6V18z M18,18v-4h1.858c0.264,0,0.792,0.323,0.953,0.753l0.039,0.104l0.05,0.099L22.443,18H18z"/>
</svg>
